assets/spark/icons/WarningOutline.svg

<svg viewBox="0 0 24 24" xmlns="http://www.w3.org/2000/svg">
<path fill-rule="evenodd" clip-rule="evenodd" d="M12 8.22537C12.5522 8.22537 13 8.67308 13 9.22537V13.8087C13 14.361 12.5522 14.8087 12 14.8087C11.4477 14.8087 11 14.361 11 13.8087V9.22537C11 8.67308 11.4477 8.22537 12 8.22537Z"/>
<path d="M11.9998 18.0573C12.6902 18.0573 13.2498 17.4976 13.2498 16.8073C13.2498 16.1169 12.6902 15.5573 11.9998 15.5573C11.3095 15.5573 10.7498 16.1169 10.7498 16.8073C10.7498 17.4976 11.3095 18.0573 11.9998 18.0573Z"/>
<path fill-rule="evenodd" clip-rule="evenodd" d="M10.7559 2.35011C11.1305 2.12115 11.5609 2 11.9999 2C12.4389 2 12.8694 2.12115 13.244 2.35011C13.6185 2.57907 13.9226 2.90696 14.1228 3.29767L14.1273 3.3064L21.7447 18.5414L21.7457 18.5433C21.928 18.9059 22.0148 19.309 21.9978 19.7146C21.9808 20.1208 21.8602 20.516 21.6475 20.8625C21.4348 21.209 21.137 21.4955 20.7825 21.6945C20.428 21.8936 20.0284 21.9988 19.6218 22L19.6188 22H4.38106L4.37803 22C3.97143 21.9988 3.5719 21.8936 3.21737 21.6945C2.86284 21.4955 2.56509 21.209 2.35239 20.8625C2.13969 20.516 2.01911 20.1208 2.00209 19.7146C1.9851 19.3089 2.07194 18.9057 2.25437 18.543L2.25516 18.5414L9.87702 3.29765C10.0772 2.90694 10.3813 2.57907 10.7559 2.35011ZM11.9999 4C11.929 4 11.8595 4.01957 11.799 4.05655C11.7395 4.09294 11.691 4.1448 11.6586 4.20657L4.04261 19.4386L4.04121 19.4414C4.01166 19.5 3.99759 19.5653 4.00034 19.6309C4.00309 19.6965 4.02256 19.7603 4.05692 19.8163C4.09127 19.8723 4.13936 19.9185 4.19662 19.9507C4.25357 19.9826 4.31771 19.9996 4.38301 20H19.6169C19.6822 19.9996 19.7463 19.9826 19.8032 19.9507C19.8605 19.9185 19.9086 19.8723 19.943 19.8163C19.9773 19.7603 19.9968 19.6965 19.9995 19.6309C20.0023 19.5653 19.9882 19.5 19.9587 19.4414L19.9573 19.4386L12.3412 4.20657C12.3089 4.1448 12.2604 4.09294 12.2009 4.05655C12.1404 4.01957 12.0708 4 11.9999 4Z"/>
</svg>

<svg viewBox="0 0 24 24" xmlns="http://www.w3.org/2000/svg">
  <path d="m12,8.23c.55,0,1,.45,1,1v4.58c0,.55-.45,1-1,1s-1-.45-1-1v-4.58c0-.55.45-1,1-1Z"/>
  <path d="m12,18.06c.69,0,1.25-.56,1.25-1.25s-.56-1.25-1.25-1.25-1.25.56-1.25,1.25.56,1.25,1.25,1.25Z"/>
  <path d="m10.76,2.35c.37-.23.8-.35,1.24-.35s.87.12,1.24.35c.37.23.68.56.88.95h0s7.62,15.24,7.62,15.24h0c.18.36.27.77.25,1.17-.02.41-.14.8-.35,1.15-.21.35-.51.63-.86.83-.35.2-.75.3-1.16.31H4.38c-.41,0-.81-.11-1.16-.31-.35-.2-.65-.49-.86-.83-.21-.35-.33-.74-.35-1.15-.02-.41.07-.81.25-1.17h0S9.88,3.3,9.88,3.3c.2-.39.5-.72.88-.95Zm1.24,1.65c-.07,0-.14.02-.2.06-.06.04-.11.09-.14.15l-7.62,15.23h0c-.03.06-.04.13-.04.19,0,.07.02.13.06.19.03.06.08.1.14.13.06.03.12.05.19.05h15.23c.07,0,.13-.02.19-.05.06-.03.11-.08.14-.13.03-.06.05-.12.06-.19,0-.07-.01-.13-.04-.19h0s-7.62-15.23-7.62-15.23c-.03-.06-.08-.11-.14-.15-.06-.04-.13-.06-.2-.06Z"/>
</svg>
